packages/tokens/icons/connector/size24Px.svg

<svg viewBox="0 0 24 24" fill="none" xmlns="http://www.w3.org/2000/svg" width="1em" height="1em"><path d="M6.50012 4.5C6.50012 5.60457 5.60469 6.5 4.50012 6.5C3.39555 6.5 2.50012 5.60457 2.50012 4.5C2.50012 3.39543 3.39555 2.5 4.50012 2.5C5.60469 2.5 6.50012 3.39543 6.50012 4.5Z" stroke="currentColor"/><path d="M6.50012 12C6.50012 13.1046 5.60469 14 4.50012 14C3.39555 14 2.50012 13.1046 2.50012 12C2.50012 10.8954 3.39555 10 4.50012 10C5.60469 10 6.50012 10.8954 6.50012 12Z" stroke="currentColor"/><path d="M6.50012 19.5C6.50012 20.6046 5.60469 21.5 4.50012 21.5C3.39555 21.5 2.50012 20.6046 2.50012 19.5C2.50012 18.3954 3.39555 17.5 4.50012 17.5C5.60469 17.5 6.50012 18.3954 6.50012 19.5Z" stroke="currentColor"/><path d="M16.4896 12.3536C16.2943 12.1583 16.2943 11.8417 16.4896 11.6464L18.6109 9.52513C18.8062 9.32986 19.1228 9.32986 19.318 9.52513L21.4393 11.6464C21.6346 11.8417 21.6346 12.1583 21.4393 12.3536L19.318 14.4749C19.1228 14.6701 18.8062 14.6701 18.6109 14.4749L16.4896 12.3536Z" stroke="currentColor"/><path d="M6.5 12L16.5 12" stroke="currentColor"/><path d="M6.5 4.5L9.55848 4.5C10.4193 4.5 11.1836 5.05086 11.4558 5.86754L13.5 12" stroke="currentColor"/><path d="M6.50012 19.5H9.5586C10.4195 19.5 11.1837 18.9491 11.456 18.1325L13.5001 12" stroke="currentColor"/></svg>

<svg xmlns="http://www.w3.org/2000/svg" fill="none" viewBox="0 0 24 24" width="1em" height="1em"><path stroke="currentColor" d="M6.5 4.5a2 2 0 1 1-4 0 2 2 0 0 1 4 0Zm0 7.5a2 2 0 1 1-4 0 2 2 0 0 1 4 0Zm0 7.5a2 2 0 1 1-4 0 2 2 0 0 1 4 0Zm9.99-7.146a.5.5 0 0 1 0-.708l2.12-2.12a.5.5 0 0 1 .708 0l2.121 2.12a.5.5 0 0 1 0 .708l-2.121 2.12a.5.5 0 0 1-.707 0l-2.121-2.12ZM6.5 12h10m-10-7.5h3.058a2 2 0 0 1 1.898 1.368L13.5 12m-7 7.5h3.06a2 2 0 0 0 1.897-1.367L13.5 12"/></svg>
